X: 5
T: The Golden Keyboard
R: reel
M: 4/4
L: 1/8
K: Fmaj
AG |: FADE FEFG | A2fA eAdc | ADDE FAGF | ECGC ACGC |
| FADE FEFG | A2fA eAdA | (3cec =Bd cAGE |1 CDEG FDDE :|2 CDEG FDD2 ||
|: Add2 Add2 | Adde dcAd | cGG2 EGed | ced=B cAGE |
| (3FDC DE FEFG | A2fA eAdA | (3cec =Bd cAGE |1 CDEG FDD2 :|2 CDEG FDDE ||


Tune 36	Setting 36

